src/assets/filled/Truck.svg

<?xml version="1.0" encoding="UTF-8"?>
<svg width="24" height="24" viewBox="0 0 24 24" xmlns="http://www.w3.org/2000/svg">
 <path d="m14 2.92v8.31c0 1.02-0.83 1.85-1.85 1.85h-9.15c-0.55 0-1-0.45-1-1v-6.39c0-2.04 1.65-3.69 3.69-3.69h7.38c0.52 0 0.93 0.41 0.93 0.92z"/>
 <path d="m21.5 15.5c0.28 0 0.5 0.22 0.5 0.5v1c0 1.66-1.34 3-3 3 0-1.65-1.35-3-3-3s-3 1.35-3 3h-2c0-1.65-1.35-3-3-3s-3 1.35-3 3c-1.66 0-3-1.34-3-3v-2c0-0.55 0.45-1 1-1h9.5c1.38 0 2.5-1.12 2.5-2.5v-5.5c0-0.55 0.45-1 1-1h0.84c0.72 0 1.38 0.39 1.74 1.01l0.64 1.12c0.09 0.16-0.03 0.37-0.22 0.37-1.38 0-2.5 1.12-2.5 2.5v3c0 1.38 1.12 2.5 2.5 2.5h2.5z"/>
 <path d="m8 22c1.1046 0 2-0.8954 2-2s-0.89543-2-2-2-2 0.8954-2 2 0.89543 2 2 2z"/>
 <path d="m16 22c1.1046 0 2-0.8954 2-2s-0.8954-2-2-2-2 0.8954-2 2 0.8954 2 2 2z"/>
 <path d="m22 12.53v1.47h-3c-0.55 0-1-0.45-1-1v-3c0-0.55 0.45-1 1-1h1.29l1.45 2.54c0.17 0.3 0.26 0.64 0.26 0.99z"/>
</svg>

<svg width="24" height="24" viewBox="0 0 24 24"  xmlns="http://www.w3.org/2000/svg">
<path d="M14 2.92V11.23C14 12.25 13.17 13.08 12.15 13.08H3C2.45 13.08 2 12.63 2 12.08V5.69C2 3.65 3.65 2 5.69 2H13.07C13.59 2 14 2.41 14 2.92Z" />
<path d="M21.5 15.5C21.78 15.5 22 15.72 22 16V17C22 18.66 20.66 20 19 20C19 18.35 17.65 17 16 17C14.35 17 13 18.35 13 20H11C11 18.35 9.65 17 8 17C6.35 17 5 18.35 5 20C3.34 20 2 18.66 2 17V15C2 14.45 2.45 14 3 14H12.5C13.88 14 15 12.88 15 11.5V6C15 5.45 15.45 5 16 5H16.84C17.56 5 18.22 5.39 18.58 6.01L19.22 7.13C19.31 7.29 19.19 7.5 19 7.5C17.62 7.5 16.5 8.62 16.5 10V13C16.5 14.38 17.62 15.5 19 15.5H21.5Z" />
<path d="M8 22C9.10457 22 10 21.1046 10 20C10 18.8954 9.10457 18 8 18C6.89543 18 6 18.8954 6 20C6 21.1046 6.89543 22 8 22Z" />
<path d="M16 22C17.1046 22 18 21.1046 18 20C18 18.8954 17.1046 18 16 18C14.8954 18 14 18.8954 14 20C14 21.1046 14.8954 22 16 22Z" />
<path d="M22 12.53V14H19C18.45 14 18 13.55 18 13V10C18 9.45 18.45 9 19 9H20.29L21.74 11.54C21.91 11.84 22 12.18 22 12.53Z" />
</svg>
